img/img_personnages/bouche_personnage_mauve.svg

<svg width="50" height="16" viewBox="0 0 50 16" fill="none" xmlns="http://www.w3.org/2000/svg">
<path d="M0.802734 3.80804C0.802734 1.58908 3.12829 0.138038 5.12139 1.11339L23.0362 9.88019C23.8384 10.2728 24.7739 10.2875 25.5882 9.9203L45.5694 0.909145C47.5549 0.0137409 49.8027 1.46588 49.8027 3.64391V4.83772C49.8027 6.12901 48.9764 7.27543 47.7514 7.68377L25.2916 15.1704C24.6511 15.3839 23.9574 15.3751 23.3225 15.1455L2.78233 7.71602C1.59426 7.2863 0.802734 6.15829 0.802734 4.89489V3.80804Z" fill="black"/>
</svg>

<svg xmlns="http://www.w3.org/2000/svg" width="50" height="16" fill="none"><path fill="#000" d="M.803 3.808c0-2.219 2.325-3.67 4.318-2.695L23.036 9.88a3 3 0 0 0 2.552.04L45.57.91c1.986-.896 4.234.556 4.234 2.734v1.194a3 3 0 0 1-2.052 2.846l-22.46 7.486a3 3 0 0 1-1.968-.024l-20.54-7.43a3 3 0 0 1-1.98-2.821V3.808Z"/></svg>
